assets/svg/1f3c6.svg

<svg xmlns="http://www.w3.org/2000/svg" viewBox="0 0 64 64" enable-background="new 0 0 64 64"><g fill="#f2b200"><path d="m12.687 31.713c-.54 0-1.062-.12-1.548-.365-1.309-.66-2.868-2.458-2.868-7.284 0-10.09-5.324-15.849-5.379-15.906l-.892-.945 4.736-5.213.81 1.222c.102.148 2.578 3.738 6.533 2.683l.549 2.579c-3.896 1.041-6.711-1.139-8.07-2.57l-1.207 1.329c1.679 2.223 5.286 8.02 5.286 16.821 0 2.62.537 4.394 1.473 4.866.71.357 1.765-.031 2.754-1.013 2.59-2.573 4.493-8.986 4.512-9.05l2.248.827c-.084.291-2.119 7.158-5.19 10.207-1.197 1.188-2.518 1.812-3.747 1.812"/><path d="m51.31 31.712c.541 0 1.063-.12 1.549-.365 1.309-.659 2.867-2.458 2.867-7.284 0-10.09 5.324-15.849 5.379-15.905l.892-.947-4.736-5.211-.811 1.221c-.102.148-2.578 3.739-6.533 2.682l-.549 2.579c3.896 1.041 6.711-1.138 8.07-2.57l1.207 1.328c-1.678 2.223-5.285 8.02-5.285 16.821 0 2.621-.537 4.395-1.473 4.866-.711.359-1.766-.03-2.754-1.012-2.59-2.572-4.494-8.985-4.514-9.05l-2.248.826c.086.291 2.121 7.158 5.191 10.207 1.197 1.189 2.519 1.813 3.748 1.813"/><path d="m28.95 24.931h6.099v24.478h-6.099z"/></g><path fill="#ffce31" d="m30.2 24.931h3.599v24.478h-3.599z"/><path fill="#f2b200" d="m11.825 2c1.72 15.382 10.1 27.718 20.18 27.718 10.08 0 18.455-12.336 20.17-27.718h-40.35"/><path fill="#ffce31" d="m15.716 2c1.389 15.561 8.152 28.04 16.284 28.04 8.132 0 14.894-12.481 16.283-28.04h-32.567"/><path fill="#f2b200" d="m47.648 54h-31.3c0 0 7.01-9.03 15.65-9.03 8.642 0 15.647 9.03 15.647 9.03"/><path fill="#ffce31" d="m43.873 54h-23.748c0 0 5.316-9.183 11.875-9.183 6.559 0 11.873 9.183 11.873 9.183"/><path fill="#bc845e" d="m11.816 56h40.37v6h-40.37z"/><path fill="#916140" d="m16.351 54h31.3v2h-31.3z"/><path fill="#f2b200" d="m22 57.5h20v3h-20z"/><path fill="#ce9c7a" d="m11.816 56h2v6h-2z"/><path fill="#916140" d="m50.18 56h2v6h-2z"/><path fill="#ffce31" d="m23 57.5h18v3h-18z"/></svg>

<svg xmlns="http://www.w3.org/2000/svg" width="64" height="64" viewBox="0 0 64 64"><path fill="#F2B200" d="M12.687 31.713c-.54 0-1.062-.12-1.548-.365-1.309-.66-2.868-2.458-2.868-7.284 0-10.092-5.324-15.849-5.379-15.906L2 7.213 6.736 2l.81 1.222c.102.148 2.578 3.738 6.533 2.683l.549 2.579c-3.896 1.041-6.711-1.139-8.07-2.57L5.351 7.243c1.679 2.223 5.286 8.023 5.286 16.821 0 2.62.537 4.394 1.473 4.866.71.357 1.765-.031 2.754-1.013 2.59-2.573 4.493-8.986 4.512-9.05l2.248.827c-.084.291-2.119 7.158-5.19 10.207-1.197 1.188-2.518 1.812-3.747 1.812zM51.313 31.712a3.41 3.41 0 0 0 1.549-.365c1.309-.659 2.867-2.458 2.867-7.284 0-10.091 5.324-15.849 5.379-15.905L62 7.211 57.264 2l-.811 1.221c-.102.148-2.578 3.739-6.533 2.682l-.549 2.579c3.896 1.041 6.711-1.138 8.07-2.57l1.207 1.328c-1.678 2.223-5.285 8.024-5.285 16.821 0 2.621-.537 4.395-1.473 4.866-.711.359-1.766-.03-2.754-1.012-2.59-2.572-4.494-8.985-4.514-9.049l-2.248.826c.086.291 2.121 7.158 5.191 10.207 1.197 1.189 2.519 1.813 3.748 1.813zM28.95 24.931h6.099v24.478H28.95z"/><path fill="#FFCE31" d="M30.2 24.931h3.599v24.478H30.2z"/><path fill="#F2B200" d="M11.825 2C13.545 17.382 21.924 29.718 32 29.718S50.455 17.382 52.175 2h-40.35z"/><path fill="#FFCE31" d="M15.716 2C17.105 17.561 23.868 30.042 32 30.042S46.894 17.561 48.283 2H15.716z"/><path fill="#F2B200" d="M47.648 54H16.351s7.006-9.033 15.65-9.033c8.642 0 15.647 9.033 15.647 9.033z"/><path fill="#FFCE31" d="M43.873 54H20.125S25.441 44.817 32 44.817 43.873 54 43.873 54z"/><g><path fill="#BC845E" d="M11.816 56h40.368v6H11.816z"/><path fill="#916140" d="M16.351 54h31.298v2H16.351z"/><path fill="#F2B200" d="M22 57.5h20v3H22z"/><path fill="#CE9C7A" d="M11.816 56h2v6h-2z"/><path fill="#916140" d="M50.184 56h2v6h-2z"/><path fill="#FFCE31" d="M23 57.5h18v3H23z"/></g></svg>
